X:1
T:Forgiveness, 77.77
T:Forgiveness, 77.77
T:George Mursell Garrett, 1872
T:Public Domain Courtesy of the Cyber Hymnal™
C:George Mursell Garrett, 1872
Z:Public Domain
Z:Courtesy of the Cyber Hymnal™
%%score ( 1 2 ) 3
L:1/8
Q:1/4=110
M:4/4
K:Eb
V:1 treble 
V:2 treble 
V:3 bass 
V:1
 [EG]2 [Ec]2 [DB]3 [DF] | [EG]2 [DA]2 [EG]4 | [GB]2 [Ge]2 [^Fd]3 [F=A] | [GB]2 [^Fc]2 [GB]4 | %4
 [GB]2 [G_d]2 [Gc]3 G | [GB]2 [FA]2 [DF]4 | E2 [EF]2 [DA]3 [EG] | [EF]2 [DF]2 E4 |] %8
V:2
 x8 | x8 | x8 | x8 | x8 | x8 | E2 x6 | x4 E4 |] %8
V:3
 [E,B,]2 [A,,A,]2 [B,,F,]3 [B,,A,] | [B,,G,]2 [B,,F,]2 [E,G,]4 | [E,G,]2 [C,C]2 [D,=A,]3 [D,C] | %3
 [D,B,]2 [D,=A,]2 [G,B,]4 | [E,E]2 [E,B,]2 [=E,G,]3 [E,C] | [F,C]2 [F,C]2 [B,,B,]4 | %6
 [C,G,]2 [C,A,]2 [F,,B,]3 [G,,B,] | [A,,C]2 [B,,B,]2 [E,G,]4 |] %8

